assets/illustrations/default/settings-1.svg

<svg xmlns="http://www.w3.org/2000/svg" width="1080" height="1081" fill="none"><path fill="#072F73" d="M223.747 511.224c48.546 0 87.901-39.599 87.901-88.446s-39.355-88.446-87.901-88.446-87.901 39.599-87.901 88.446 39.355 88.446 87.901 88.446"/><path fill="url(#a)" d="M965.321 267.314h-732.56c-7.215 0-13.063 5.852-13.063 13.07v467.05c0 7.219 5.848 13.07 13.063 13.07h732.56c7.215 0 13.064-5.851 13.064-13.07v-467.05c0-7.218-5.849-13.07-13.064-13.07"/><path fill="#1968F0" fill-rule="evenodd" d="M741.801 336.056H250.647v-2.764h491.154zM297.777 299.4a8.22 8.22 0 0 0-8.217 8.221 8.22 8.22 0 0 0 8.217 8.221 8.22 8.22 0 0 0 8.217-8.221 8.22 8.22 0 0 0-8.217-8.221m-12.136 8.221c0-6.706 5.433-12.142 12.136-12.142s12.136 5.436 12.136 12.142-5.434 12.142-12.136 12.142c-6.703 0-12.136-5.436-12.136-12.142M332.922 299.4a8.22 8.22 0 0 0-8.217 8.221 8.22 8.22 0 0 0 8.217 8.221 8.22 8.22 0 0 0 8.217-8.221 8.22 8.22 0 0 0-8.217-8.221m-12.136 8.221c0-6.706 5.434-12.142 12.136-12.142 6.703 0 12.136 5.436 12.136 12.142s-5.433 12.142-12.136 12.142-12.136-5.436-12.136-12.142M275.661 298.341l-21.306 21.316-2.771-2.772 21.306-21.317z" clip-rule="evenodd"/><path fill="#1968F0" fill-rule="evenodd" d="m272.89 319.657-21.306-21.316 2.771-2.773 21.306 21.317z" clip-rule="evenodd"/><path fill="#F6F6F6" d="M211.594 898.589c106.919 0 193.594-86.714 193.594-193.683s-86.675-193.682-193.594-193.682S18 597.938 18 704.906c0 106.969 86.675 193.683 193.594 193.683"/><path fill="#0195FA" d="M444.353 822.916c26.982 0 48.855-22.009 48.855-49.158S471.335 724.6 444.353 724.6s-48.855 22.008-48.855 49.158c0 27.149 21.873 49.158 48.855 49.158"/><path fill="#068AF7" fill-rule="evenodd" d="m759.591 582.051-57.224-57.225a7.21 7.21 0 0 1 0-10.194l25.006-25.006a161 161 0 0 1-11.643-28.135h-35.373a7.21 7.21 0 0 1-7.209-7.208v-80.928a7.21 7.21 0 0 1 7.209-7.208h35.373a161 161 0 0 1 11.643-28.138l-25.004-25.005a7.21 7.21 0 0 1 0-10.194l57.224-57.224a7.21 7.21 0 0 1 10.194 0l25.005 25.004a161 161 0 0 1 28.135-11.643v-35.375a7.21 7.21 0 0 1 7.209-7.208h80.927a7.21 7.21 0 0 1 7.209 7.208v35.374a161 161 0 0 1 28.137 11.644l25.005-25.005a7.207 7.207 0 0 1 10.193 0l57.223 57.225a7.2 7.2 0 0 1 0 10.194l-25 25.004c4.8 9.065 8.68 18.491 11.64 28.139h35.38c3.98 0 7.2 3.227 7.2 7.208v80.928a7.2 7.2 0 0 1-7.2 7.208h-35.38a161 161 0 0 1-11.64 28.136l25 25.006a7.2 7.2 0 0 1 0 10.193l-57.221 57.225a7.21 7.21 0 0 1-10.194 0l-25.005-25.005a161 161 0 0 1-28.138 11.643v35.373a7.21 7.21 0 0 1-7.209 7.208h-80.927a7.21 7.21 0 0 1-7.209-7.208v-35.373a161 161 0 0 1-28.136-11.644l-25.006 25.006a7.21 7.21 0 0 1-10.194 0m40.34-238.903c39.03-39.029 102.308-39.029 141.338 0s39.029 102.308 0 141.338-102.308 39.029-141.338 0-39.029-102.308 0-141.338" clip-rule="evenodd"/><path fill="#F6F6F6" fill-rule="evenodd" d="m451.644 624.456-23.068-48.938a4.82 4.82 0 0 1 2.304-6.413l21.386-10.081a107.6 107.6 0 0 1-.965-20.332l-22.262-7.998a4.82 4.82 0 0 1-2.905-6.164l18.293-50.916a4.82 4.82 0 0 1 6.164-2.906l22.261 7.998a107.7 107.7 0 0 1 13.685-15.07l-10.081-21.385a4.82 4.82 0 0 1 2.305-6.414l48.938-23.068a4.82 4.82 0 0 1 6.413 2.305l10.08 21.385a107.6 107.6 0 0 1 20.336-.966l7.996-22.256a4.82 4.82 0 0 1 6.164-2.906l50.916 18.293a4.82 4.82 0 0 1 2.906 6.165l-7.996 22.255a107.7 107.7 0 0 1 15.07 13.685l21.384-10.079a4.82 4.82 0 0 1 6.413 2.304l23.068 48.938a4.82 4.82 0 0 1-2.304 6.414l-21.384 10.079a107.6 107.6 0 0 1 .966 20.337l22.25 7.994a4.82 4.82 0 0 1 2.905 6.164l-18.293 50.916a4.82 4.82 0 0 1-6.164 2.905l-22.25-7.994a107.6 107.6 0 0 1-13.687 15.071l10.079 21.383a4.82 4.82 0 0 1-2.304 6.413l-48.938 23.068a4.82 4.82 0 0 1-6.414-2.304l-10.079-21.384a107.6 107.6 0 0 1-20.334.965l-7.995 22.255a4.82 4.82 0 0 1-6.165 2.906l-50.915-18.293a4.82 4.82 0 0 1-2.906-6.165l7.996-22.255a107.7 107.7 0 0 1-15.071-13.686l-21.385 10.08a4.82 4.82 0 0 1-6.413-2.305m85.669-127.843c26.009-12.259 57.031-1.114 69.29 24.895 12.259 26.008 1.114 57.03-24.895 69.289-26.008 12.26-57.03 1.114-69.289-24.894s-1.114-57.03 24.894-69.29" clip-rule="evenodd"/><path fill="#1E6BF1" fill-rule="evenodd" d="m509.959 368.885-17.039-36.147a3.56 3.56 0 0 1 1.702-4.737l15.797-7.446a79.6 79.6 0 0 1-.713-15.019l-16.438-5.906a3.56 3.56 0 0 1-2.146-4.554l13.512-37.608a3.56 3.56 0 0 1 4.553-2.146l16.439 5.906a79.5 79.5 0 0 1 10.108-11.131l-7.446-15.795a3.56 3.56 0 0 1 1.702-4.738l36.148-17.038a3.56 3.56 0 0 1 4.737 1.702l7.445 15.795a79.5 79.5 0 0 1 15.02-.713l5.906-16.44a3.56 3.56 0 0 1 4.553-2.146l37.609 13.512a3.56 3.56 0 0 1 2.146 4.553l-5.906 16.439a79.6 79.6 0 0 1 11.131 10.109l15.794-7.445a3.56 3.56 0 0 1 4.737 1.702l17.039 36.147a3.56 3.56 0 0 1-1.702 4.738l-15.794 7.444a79.4 79.4 0 0 1 .714 15.021l16.438 5.906a3.56 3.56 0 0 1 2.147 4.553l-13.512 37.608a3.56 3.56 0 0 1-4.554 2.147l-16.438-5.907a79.4 79.4 0 0 1-10.11 11.133l7.445 15.794a3.56 3.56 0 0 1-1.702 4.738l-36.147 17.038a3.56 3.56 0 0 1-4.737-1.702l-7.445-15.795a79.5 79.5 0 0 1-15.02.713l-5.906 16.438a3.56 3.56 0 0 1-4.553 2.146l-37.609-13.512a3.56 3.56 0 0 1-2.146-4.553l5.906-16.438a79.5 79.5 0 0 1-11.132-10.109l-15.796 7.445a3.56 3.56 0 0 1-4.737-1.702m91.353-34.871c13.682-6.449 19.545-22.768 13.096-36.45s-22.769-19.545-36.451-13.096-19.545 22.768-13.096 36.45 22.769 19.546 36.451 13.096" clip-rule="evenodd"/><path fill="#35DE90" d="m407.765 659.366-287.708-77.092c-7.323-1.962-14.85 2.386-16.813 9.712L54.739 773.008c-1.963 7.325 2.382 14.855 9.705 16.817l287.708 77.091c7.323 1.962 14.85-2.386 16.813-9.712l48.504-181.021c1.963-7.326-2.381-14.855-9.704-16.817"/><path fill="#fff" fill-rule="evenodd" d="m126.587 611.832 260.741 69.865-41.713 155.673-260.74-69.865zm1.941 3.363L88.237 765.562l255.437 68.445 40.291-150.367z" clip-rule="evenodd"/><path fill="#fff" fill-rule="evenodd" d="m214.274 800.755 41.001-153.02 2.652.711-41.001 153.02zM149.746 783.464l41.002-153.02 2.651.711-41.001 153.02zM278.79 818.043l41.002-153.02 2.651.711-41.001 153.02z" clip-rule="evenodd"/><path fill="#fff" fill-rule="evenodd" d="m107.412 688.697 258.089 69.155-.711 2.653-258.089-69.155zM117.661 650.441l258.089 69.155-.711 2.653-258.089-69.155zM97.163 726.952l258.089 69.155-.711 2.653-258.09-69.155z" clip-rule="evenodd"/><path fill="#0096FA" fill-rule="evenodd" d="M251.245 754.881c-7.878 7.753-16.717 13.143-26.102 10.629-9.594-2.571-16.17-7.057-21.041-12.509-4.814-5.388-7.876-11.632-10.575-17.489l-.787-1.713c-5.14-11.214-9.392-20.49-21.875-23.835-5.736-1.537-13.918.691-23.545 5.75-9.458 4.971-19.656 12.318-29.102 19.973-9.429 7.64-18.023 15.518-24.266 21.491a414 414 0 0 0-7.392 7.247A293 293 0 0 0 84.034 767l-.13.135-.04.041v.002l-1.479-1.413-.506-.485c-1.984-1.898-1.984-1.898-1.983-1.899l.012-.013.036-.037.14-.144q.181-.191.536-.554c.47-.483 1.16-1.187 2.046-2.08a426 426 0 0 1 7.492-7.344c6.31-6.038 15.021-14.024 24.604-21.79 9.566-7.752 20.086-15.354 30.005-20.567 9.751-5.124 19.605-8.314 27.519-6.194 15.048 4.032 20.329 15.619 25.275 26.472q.477 1.047.952 2.082c2.69 5.837 5.466 11.408 9.683 16.128 4.159 4.655 9.806 8.569 18.369 10.864 6.326 1.695 13.161-1.691 20.83-9.238 7.556-7.436 15.12-18.122 22.753-29.11l1.384-1.992c7.095-10.225 14.25-20.535 21.305-28.002 3.764-3.985 7.636-7.312 11.607-9.391 4.011-2.1 8.269-2.996 12.603-1.835 7.727 2.071 11.651 7.925 14.024 14.826 1.679 4.881 2.717 10.723 3.764 16.619a359 359 0 0 0 1.224 6.644c1.624 8.218 3.797 16.234 8.184 22.915 4.319 6.578 10.883 12.01 21.63 14.89l-1.422 5.306c-12.037-3.226-19.733-9.467-24.798-17.18-4.996-7.61-7.329-16.504-8.98-24.865-.489-2.476-.916-4.878-1.328-7.194-1.015-5.714-1.936-10.898-3.466-15.347-2.087-6.071-5.041-9.911-10.254-11.308-2.65-.71-5.476-.259-8.636 1.396-3.201 1.676-6.589 4.514-10.162 8.296-6.758 7.153-13.689 17.138-20.879 27.497l-1.291 1.859c-7.568 10.893-15.422 22.029-23.412 29.891" clip-rule="evenodd"/><defs><linearGradient id="a" x1="140.612" x2="1032.06" y1="140.397" y2="866.057" gradientUnits="userSpaceOnUse"><stop stop-color="#fff"/><stop offset=".14" stop-color="#E3ECFD"/><stop offset=".29" stop-color="#CDDEFB"/><stop offset=".39" stop-color="#C5D9FB"/><stop offset=".61" stop-color="#C3D7FA"/><stop offset=".7" stop-color="#BCD3FA"/><stop offset=".77" stop-color="#AFCBF9"/><stop offset=".82" stop-color="#9EBFF8"/><stop offset=".87" stop-color="#88B0F7"/><stop offset=".91" stop-color="#6C9EF5"/><stop offset=".95" stop-color="#4B88F3"/><stop offset=".98" stop-color="#2570F0"/><stop offset=".99" stop-color="#1968F0"/></linearGradient></defs></svg>

<svg width="1080" height="1081" viewBox="0 0 1080 1081" fill="none" xmlns="http://www.w3.org/2000/svg">
<path d="M223.747 511.224C272.293 511.224 311.648 471.625 311.648 422.778C311.648 373.931 272.293 334.332 223.747 334.332C175.201 334.332 135.846 373.931 135.846 422.778C135.846 471.625 175.201 511.224 223.747 511.224Z" fill="#072F73"/>
<path d="M965.321 267.314H232.761C225.546 267.314 219.698 273.166 219.698 280.384V747.434C219.698 754.653 225.546 760.504 232.761 760.504H965.321C972.536 760.504 978.385 754.653 978.385 747.434V280.384C978.385 273.166 972.536 267.314 965.321 267.314Z" fill="url(#paint0_linear_18735_3327)"/>
<path fill-rule="evenodd" clip-rule="evenodd" d="M741.801 336.056H250.647V333.292H741.801V336.056Z" fill="#1968F0"/>
<path fill-rule="evenodd" clip-rule="evenodd" d="M297.777 299.4C293.239 299.4 289.56 303.081 289.56 307.621C289.56 312.161 293.239 315.842 297.777 315.842C302.315 315.842 305.994 312.161 305.994 307.621C305.994 303.081 302.315 299.4 297.777 299.4ZM285.641 307.621C285.641 300.915 291.074 295.479 297.777 295.479C304.479 295.479 309.913 300.915 309.913 307.621C309.913 314.327 304.479 319.763 297.777 319.763C291.074 319.763 285.641 314.327 285.641 307.621Z" fill="#1968F0"/>
<path fill-rule="evenodd" clip-rule="evenodd" d="M332.922 299.4C328.384 299.4 324.705 303.081 324.705 307.621C324.705 312.161 328.384 315.842 332.922 315.842C337.46 315.842 341.139 312.161 341.139 307.621C341.139 303.081 337.46 299.4 332.922 299.4ZM320.786 307.621C320.786 300.915 326.22 295.479 332.922 295.479C339.625 295.479 345.058 300.915 345.058 307.621C345.058 314.327 339.625 319.763 332.922 319.763C326.22 319.763 320.786 314.327 320.786 307.621Z" fill="#1968F0"/>
<path fill-rule="evenodd" clip-rule="evenodd" d="M275.661 298.341L254.355 319.657L251.584 316.885L272.89 295.568L275.661 298.341Z" fill="#1968F0"/>
<path fill-rule="evenodd" clip-rule="evenodd" d="M272.89 319.657L251.584 298.341L254.355 295.568L275.661 316.885L272.89 319.657Z" fill="#1968F0"/>
<path d="M211.594 898.589C318.513 898.589 405.188 811.875 405.188 704.906C405.188 597.938 318.513 511.224 211.594 511.224C104.675 511.224 18 597.938 18 704.906C18 811.875 104.675 898.589 211.594 898.589Z" fill="#F6F6F6"/>
<path d="M444.353 822.916C471.335 822.916 493.208 800.907 493.208 773.758C493.208 746.608 471.335 724.6 444.353 724.6C417.371 724.6 395.498 746.608 395.498 773.758C395.498 800.907 417.371 822.916 444.353 822.916Z" fill="#0195FA"/>
<path fill-rule="evenodd" clip-rule="evenodd" d="M759.591 582.051L702.367 524.826C699.552 522.011 699.552 517.447 702.367 514.632L727.373 489.626C722.571 480.561 718.691 471.137 715.73 461.491H680.357C676.376 461.491 673.148 458.264 673.148 454.283L673.148 373.355C673.148 369.374 676.376 366.147 680.357 366.147L715.73 366.147C718.69 356.5 722.571 347.074 727.373 338.009L702.369 313.004C699.554 310.189 699.554 305.625 702.369 302.81L759.593 245.586C762.408 242.771 766.972 242.771 769.787 245.586L794.792 270.59C803.856 265.789 813.281 261.908 822.927 258.947V223.572C822.927 219.591 826.155 216.364 830.136 216.364H911.063C915.044 216.364 918.272 219.591 918.272 223.572L918.272 258.946C927.919 261.907 937.344 265.788 946.409 270.59L971.414 245.585C974.228 242.77 978.792 242.77 981.607 245.585L1038.83 302.81C1041.65 305.625 1041.65 310.189 1038.83 313.004L1013.83 338.008C1018.63 347.073 1022.51 356.499 1025.47 366.147L1060.85 366.147C1064.83 366.147 1068.05 369.374 1068.05 373.355V454.283C1068.05 458.264 1064.83 461.491 1060.85 461.491L1025.47 461.491C1022.51 471.138 1018.63 480.562 1013.83 489.627L1038.83 514.633C1041.65 517.448 1041.65 522.011 1038.83 524.826L981.609 582.051C978.794 584.866 974.23 584.866 971.415 582.051L946.41 557.046C937.344 561.848 927.919 565.729 918.272 568.689V604.062C918.272 608.043 915.044 611.27 911.063 611.27H830.136C826.155 611.27 822.927 608.043 822.927 604.062V568.689C813.281 565.728 803.856 561.847 794.791 557.045L769.785 582.051C766.97 584.865 762.406 584.865 759.591 582.051ZM799.931 343.148C838.961 304.119 902.239 304.119 941.269 343.148C980.298 382.178 980.298 445.456 941.269 484.486C902.239 523.515 838.961 523.515 799.931 484.486C760.902 445.457 760.902 382.178 799.931 343.148Z" fill="#068AF7"/>
<path fill-rule="evenodd" clip-rule="evenodd" d="M451.644 624.456L428.576 575.518C427.441 573.111 428.473 570.24 430.88 569.105L452.266 559.024C451.294 552.237 450.983 545.43 451.301 538.692L429.039 530.694C426.535 529.794 425.234 527.035 426.134 524.53L444.427 473.614C445.327 471.11 448.087 469.809 450.591 470.708L472.852 478.706C476.895 473.306 481.467 468.254 486.537 463.636L476.456 442.251C475.322 439.843 476.353 436.972 478.761 435.837L527.699 412.769C530.106 411.635 532.977 412.666 534.112 415.074L544.192 436.459C550.981 435.486 557.789 435.175 564.528 435.493L572.524 413.237C573.424 410.732 576.184 409.431 578.688 410.331L629.604 428.624C632.109 429.524 633.41 432.284 632.51 434.789L624.514 457.044C629.914 461.087 634.966 465.659 639.584 470.729L660.968 460.65C663.375 459.515 666.246 460.547 667.381 462.954L690.449 511.892C691.583 514.3 690.552 517.171 688.144 518.306L666.761 528.385C667.734 535.174 668.045 541.982 667.727 548.722L689.977 556.716C692.481 557.615 693.782 560.375 692.882 562.88L674.589 613.796C673.689 616.3 670.929 617.601 668.425 616.701L646.175 608.707C642.131 614.108 637.559 619.16 632.488 623.778L642.567 645.161C643.702 647.568 642.67 650.44 640.263 651.574L591.325 674.642C588.917 675.777 586.046 674.745 584.911 672.338L574.832 650.954C568.043 651.926 561.237 652.237 554.498 651.919L546.503 674.174C545.603 676.679 542.843 677.98 540.338 677.08L489.423 658.787C486.918 657.887 485.617 655.127 486.517 652.622L494.513 630.367C489.113 626.324 484.06 621.751 479.442 616.681L458.057 626.761C455.65 627.895 452.778 626.864 451.644 624.456ZM537.313 496.613C563.322 484.354 594.344 495.499 606.603 521.508C618.862 547.516 607.717 578.538 581.708 590.797C555.7 603.057 524.678 591.911 512.419 565.903C500.159 539.895 511.305 508.873 537.313 496.613Z" fill="#F6F6F6"/>
<path fill-rule="evenodd" clip-rule="evenodd" d="M509.959 368.885L492.92 332.738C492.082 330.96 492.844 328.839 494.622 328.001L510.419 320.555C509.701 315.54 509.472 310.513 509.706 305.536L493.268 299.63C491.418 298.965 490.457 296.926 491.122 295.076L504.634 257.468C505.298 255.618 507.337 254.657 509.187 255.322L525.626 261.228C528.612 257.24 531.989 253.508 535.734 250.097L528.288 234.302C527.45 232.523 528.212 230.403 529.99 229.564L566.138 212.526C567.916 211.688 570.037 212.45 570.875 214.228L578.32 230.023C583.335 229.305 588.362 229.075 593.34 229.31L599.246 212.87C599.911 211.02 601.949 210.06 603.799 210.724L641.408 224.236C643.258 224.901 644.218 226.939 643.554 228.789L637.648 245.228C641.636 248.215 645.368 251.592 648.779 255.337L664.573 247.892C666.351 247.054 668.472 247.816 669.31 249.594L686.349 285.741C687.187 287.52 686.425 289.64 684.647 290.479L668.853 297.923C669.572 302.938 669.802 307.966 669.567 312.944L686.005 318.85C687.855 319.515 688.816 321.553 688.152 323.403L674.64 361.011C673.975 362.861 671.936 363.822 670.086 363.158L653.648 357.251C650.661 361.241 647.284 364.973 643.538 368.384L650.983 384.178C651.822 385.957 651.06 388.077 649.281 388.916L613.134 405.954C611.356 406.792 609.235 406.03 608.397 404.252L600.952 388.457C595.937 389.175 590.909 389.405 585.932 389.17L580.026 405.608C579.361 407.458 577.323 408.419 575.473 407.754L537.864 394.242C536.014 393.578 535.054 391.539 535.718 389.689L541.624 373.251C537.635 370.264 533.903 366.887 530.492 363.142L514.696 370.587C512.918 371.425 510.797 370.663 509.959 368.885ZM601.312 334.014C614.994 327.565 620.857 311.246 614.408 297.564C607.959 283.882 591.639 278.019 577.957 284.468C564.275 290.917 558.412 307.236 564.861 320.918C571.311 334.6 587.63 340.464 601.312 334.014Z" fill="#1E6BF1"/>
<path d="M407.765 659.366L120.057 582.274C112.734 580.312 105.207 584.66 103.244 591.986L54.7394 773.008C52.7764 780.333 57.1211 787.863 64.4436 789.825L352.152 866.916C359.475 868.878 367.002 864.53 368.965 857.204L417.469 676.183C419.432 668.857 415.088 661.328 407.765 659.366Z" fill="#35DE90"/>
<path fill-rule="evenodd" clip-rule="evenodd" d="M126.587 611.832L387.328 681.697L345.615 837.37L84.8744 767.505L126.587 611.832ZM128.528 615.195L88.237 765.562L343.674 834.007L383.965 683.64L128.528 615.195Z" fill="white"/>
<path fill-rule="evenodd" clip-rule="evenodd" d="M214.274 800.755L255.275 647.735L257.927 648.446L216.926 801.466L214.274 800.755Z" fill="white"/>
<path fill-rule="evenodd" clip-rule="evenodd" d="M149.746 783.464L190.748 630.444L193.399 631.155L152.398 784.175L149.746 783.464Z" fill="white"/>
<path fill-rule="evenodd" clip-rule="evenodd" d="M278.79 818.043L319.792 665.023L322.443 665.734L281.442 818.754L278.79 818.043Z" fill="white"/>
<path fill-rule="evenodd" clip-rule="evenodd" d="M107.412 688.697L365.501 757.852L364.79 760.505L106.701 691.35L107.412 688.697Z" fill="white"/>
<path fill-rule="evenodd" clip-rule="evenodd" d="M117.661 650.441L375.75 719.596L375.039 722.249L116.95 653.094L117.661 650.441Z" fill="white"/>
<path fill-rule="evenodd" clip-rule="evenodd" d="M97.1625 726.952L355.252 796.107L354.541 798.76L96.4517 729.605L97.1625 726.952Z" fill="white"/>
<path fill-rule="evenodd" clip-rule="evenodd" d="M251.245 754.881C243.367 762.634 234.528 768.024 225.143 765.51C215.549 762.939 208.973 758.453 204.102 753.001C199.288 747.613 196.226 741.369 193.527 735.512C193.262 734.936 193 734.365 192.74 733.799C187.6 722.585 183.348 713.309 170.865 709.964C165.129 708.427 156.947 710.655 147.32 715.714C137.862 720.685 127.664 728.032 118.218 735.687C108.789 743.327 100.195 751.205 93.9525 757.178C90.8332 760.163 88.3058 762.668 86.5602 764.425C85.6875 765.304 85.0105 765.995 84.553 766.465C84.3242 766.7 84.1503 766.879 84.0343 767L83.9041 767.135L83.8647 767.176L83.8631 767.178C83.8629 767.178 83.8629 767.178 82.3855 765.765L81.8789 765.28C79.8949 763.382 79.8953 763.382 79.8961 763.381L79.9083 763.368L79.9443 763.331L80.0831 763.187C80.2049 763.06 80.3847 762.874 80.6196 762.633C81.0895 762.15 81.7797 761.446 82.6665 760.553C84.4399 758.769 87.0005 756.231 90.1576 753.209C96.4678 747.171 105.179 739.185 114.762 731.419C124.328 723.667 134.848 716.065 144.767 710.852C154.518 705.728 164.372 702.538 172.286 704.658C187.334 708.69 192.615 720.277 197.561 731.13C197.879 731.828 198.196 732.522 198.513 733.212C201.203 739.049 203.979 744.62 208.196 749.34C212.355 753.995 218.002 757.909 226.565 760.204C232.891 761.899 239.726 758.513 247.395 750.966C254.951 743.53 262.515 732.844 270.148 721.856C270.609 721.193 271.07 720.528 271.532 719.864C278.627 709.639 285.782 699.329 292.837 691.862C296.601 687.877 300.473 684.55 304.444 682.471C308.455 680.371 312.713 679.475 317.047 680.636C324.774 682.707 328.698 688.561 331.071 695.462C332.75 700.343 333.788 706.185 334.835 712.081C335.23 714.304 335.627 716.535 336.059 718.725C337.683 726.943 339.856 734.959 344.243 741.64C348.562 748.218 355.126 753.65 365.873 756.53L364.451 761.836C352.414 758.61 344.718 752.369 339.653 744.656C334.657 737.046 332.324 728.152 330.673 719.791C330.184 717.315 329.757 714.913 329.345 712.597C328.33 706.883 327.409 701.699 325.879 697.25C323.792 691.179 320.838 687.339 315.625 685.942C312.975 685.232 310.149 685.683 306.989 687.338C303.788 689.014 300.4 691.852 296.827 695.634C290.069 702.787 283.138 712.772 275.948 723.131C275.519 723.75 275.088 724.37 274.657 724.99C267.089 735.883 259.235 747.019 251.245 754.881Z" fill="#0096FA"/>
<defs>
<linearGradient id="paint0_linear_18735_3327" x1="140.612" y1="140.397" x2="1032.06" y2="866.057" gradientUnits="userSpaceOnUse">
<stop stop-color="white"/>
<stop offset="0.14" stop-color="#E3ECFD"/>
<stop offset="0.29" stop-color="#CDDEFB"/>
<stop offset="0.39" stop-color="#C5D9FB"/>
<stop offset="0.61" stop-color="#C3D7FA"/>
<stop offset="0.7" stop-color="#BCD3FA"/>
<stop offset="0.77" stop-color="#AFCBF9"/>
<stop offset="0.82" stop-color="#9EBFF8"/>
<stop offset="0.87" stop-color="#88B0F7"/>
<stop offset="0.91" stop-color="#6C9EF5"/>
<stop offset="0.95" stop-color="#4B88F3"/>
<stop offset="0.98" stop-color="#2570F0"/>
<stop offset="0.99" stop-color="#1968F0"/>
</linearGradient>
</defs>
</svg>
